X: 1
T:AIR VIII. Jockey's fu, and Jenny's fain.
B:Joseph Mitchell: "The Highland Fair" (1731)
Z:Jack Campin <http://www.purr.demon.co.uk/jack/jack.html>
M:C|
L:1/8
K:D
DDFD             cD          E2 |(D/E/D)       FD          dD A2 |\
DDFD            (F/A/)(G/F/) E>F| DdAB                     Fd D2||
Dd (d/c/)(B/A/) (B/A/)(G/F/) E>F| DdAB                     Fd A2 |\
Dd (d/c/)(B/A/) (B/A/)(G/F/) E>F|(D/E/)(F/G/) (A/B/)(c/A/) dD D2||
